client/src/assets/icons/add.svg

<svg width="24" height="24" viewBox="0 0 24 24" fill="none" xmlns="http://www.w3.org/2000/svg">
<path d="M21.8571 9.85714H14.5714C14.3348 9.85714 14.1429 9.66525 14.1429 9.42857V2.14286C14.1429 0.959473 13.1834 0 12 0C10.8166 0 9.85714 0.959473 9.85714 2.14286V9.42857C9.85714 9.66525 9.66525 9.85714 9.42857 9.85714H2.14286C0.959473 9.85714 0 10.8166 0 12C0 13.1834 0.959473 14.1429 2.14286 14.1429H9.42857C9.66525 14.1429 9.85714 14.3348 9.85714 14.5714V21.8571C9.85714 23.0405 10.8166 24 12 24C13.1834 24 14.1429 23.0405 14.1429 21.8571V14.5714C14.1429 14.3348 14.3348 14.1429 14.5714 14.1429H21.8571C23.0405 14.1429 24 13.1834 24 12C24 10.8166 23.0405 9.85714 21.8571 9.85714Z" fill="black"/>
</svg>

<svg xmlns="http://www.w3.org/2000/svg" viewBox="0 0 24 24">
  <path d="M21.86 9.86h-7.29a.43.43 0 0 1-.43-.43V2.14a2.14 2.14 0 0 0-4.28 0v7.29c0 .24-.2.43-.43.43H2.14a2.14 2.14 0 0 0 0 4.28h7.29c.24 0 .43.2.43.43v7.29a2.14 2.14 0 0 0 4.28 0v-7.29c0-.24.2-.43.43-.43h7.29a2.14 2.14 0 0 0 0-4.28Z"/>
</svg>
